Gurmukhi/0A2E.svg

<svg enable-background="new 0 0 336 592" viewBox="0 0 336 592" xmlns="http://www.w3.org/2000/svg"><path d="m186.000092 288.662598c7.997985-.000672 15.504104-.211426 22.990829.078704 4.361694.169068 5.772324-1.281555 5.745499-5.689971-.164154-26.9917-.080353-53.98494-.067353-80.977677.003281-6.807846.045502-6.925827 7.022751-6.95256 14.656616-.056122 29.314575.091171 43.969864-.056717 3.747589-.037811 5.873657 1.274536 6.978729 4.855041 1.077698 3.491837 2.628693 6.834641 3.81366 10.297043 1.745148 5.099335.557831 6.859604-4.727814 6.909409-8.496948.080063-16.998459.165741-25.491516-.031677-4.147354-.09639-5.938659 1.074005-5.92633 5.629516.137939 50.985886.092178 101.972244.125335 152.958481.00261 3.992187.49762 7.999725.270691 11.972015-.228897 4.006775-2.53833 5.279755-6.177398 3.561554-5.720124-2.700836-11.273896-5.754608-16.999253-8.443542-2.907623-1.36554-2.885864-3.691345-2.883209-6.253479.021256-20.494477-.139358-40.990845.117386-61.482086.062378-4.978119-1.698868-6.231293-6.348343-6.161255-15.325882.230865-30.657135.106323-45.986328.115661-7.047592.004303-6.987915.009949-8.049362 7.520111-1.738953 12.303803-5.140503 24.06131-11.727616 34.73758-2.115692 3.429077-4.599426 6.505615-7.8544 8.955566-5.907318 4.44632-12.216988 4.93216-18.789368 1.877228-6.280357-2.919189-8.739365-8.484283-9.27301-14.933868-.869362-10.507111 2.867401-19.975068 7.301124-29.186402 2.968972-6.168213 6.400078-12.163818 10.939949-17.260895 3.885651-4.362518 5.040329-9.081207 4.69188-14.657104-1.289902-20.640045-3.839722-41.053986-10.063874-60.876984-2.507408-7.985702-2.441993-8.009094-10.588073-8.007248-7.164727.001618-14.331559-.089218-21.493187.062699-3.108017.065918-4.990662-.994736-6.001076-4.014969-1.372315-4.101929-3.200172-8.055267-4.492729-12.178894-1.131233-3.608994.240883-5.898819 4.316551-5.901795 14.829018-.010818 29.658287.047715 44.486931-.025726 3.395439-.016815 5.013466 1.866303 6.371284 4.602066 8.953095 18.038818 14.28006 37.220856 18.143769 56.879486 1.829147 9.306763 2.908828 18.717102 3.787658 28.143402.281708 3.021637 1.480164 3.98935 4.374893 3.956147 8.996033-.103272 17.994156-.025879 27.491456-.01886z"/></svg>

<svg version="1.1" id="Layer_1" xmlns="http://www.w3.org/2000/svg" xmlns:xlink="http://www.w3.org/1999/xlink" x="0px" y="0px"
	 width="100%" viewBox="0 0 336 592" enable-background="new 0 0 336 592" xml:space="preserve">
<path fill="#000000" opacity="1.000000" stroke="none" 
	d="
M186.000092,288.662598 
	C193.998077,288.661926 201.504196,288.451172 208.990921,288.741302 
	C213.352615,288.910370 214.763245,287.459747 214.736420,283.051331 
	C214.572266,256.059631 214.656067,229.066391 214.669067,202.073654 
	C214.672348,195.265808 214.714569,195.147827 221.691818,195.121094 
	C236.348434,195.064972 251.006393,195.212265 265.661682,195.064377 
	C269.409271,195.026566 271.535339,196.338913 272.640411,199.919418 
	C273.718109,203.411255 275.269104,206.754059 276.454071,210.216461 
	C278.199219,215.315796 277.011902,217.076065 271.726257,217.125870 
	C263.229309,217.205933 254.727798,217.291611 246.234741,217.094193 
	C242.087387,216.997803 240.296082,218.168198 240.308411,222.723709 
	C240.446350,273.709595 240.400589,324.695953 240.433746,375.682190 
	C240.436356,379.674377 240.931366,383.681915 240.704437,387.654205 
	C240.475540,391.660980 238.166107,392.933960 234.527039,391.215759 
	C228.806915,388.514923 223.253143,385.461151 217.527786,382.772217 
	C214.620163,381.406677 214.641922,379.080872 214.644577,376.518738 
	C214.665833,356.024261 214.505219,335.527893 214.761963,315.036652 
	C214.824341,310.058533 213.063095,308.805359 208.413620,308.875397 
	C193.087738,309.106262 177.756485,308.981720 162.427292,308.991058 
	C155.379700,308.995361 155.439377,309.001007 154.377930,316.511169 
	C152.638977,328.814972 149.237427,340.572479 142.650314,351.248749 
	C140.534622,354.677826 138.050888,357.754364 134.795914,360.204315 
	C128.888596,364.650635 122.578926,365.136475 116.006546,362.081543 
	C109.726189,359.162354 107.267181,353.597260 106.733536,347.147675 
	C105.864174,336.640564 109.600937,327.172607 114.034660,317.961273 
	C117.003632,311.793060 120.434738,305.797455 124.974609,300.700378 
	C128.860260,296.337860 130.014938,291.619171 129.666489,286.043274 
	C128.376587,265.403229 125.826767,244.989288 119.602615,225.166290 
	C117.095207,217.180588 117.160622,217.157196 109.014542,217.159042 
	C101.849815,217.160660 94.682983,217.069824 87.521355,217.221741 
	C84.413338,217.287659 82.530693,216.227005 81.520279,213.206772 
	C80.147964,209.104843 78.320107,205.151505 77.027550,201.027878 
	C75.896317,197.418884 77.268433,195.129059 81.344101,195.126083 
	C96.173119,195.115265 111.002388,195.173798 125.831032,195.100357 
	C129.226471,195.083542 130.844498,196.966660 132.202316,199.702423 
	C141.155411,217.741241 146.482376,236.923279 150.346085,256.581909 
	C152.175232,265.888672 153.254913,275.299011 154.133743,284.725311 
	C154.415451,287.746948 155.613907,288.714661 158.508636,288.681458 
	C167.504669,288.578186 176.502792,288.655579 186.000092,288.662598 
z"/>
</svg>
